rospo-dark/16x16/panel/caffeine-cup-full.svg

<svg height="22" width="22" xmlns="http://www.w3.org/2000/svg"><path d="m10.193359 2c-1.0981996 1.38422-1.4273496 2.0661956-1.0312496 2.9472656.3591.79867 1.2869126 1.2057044.8203125 3.0527344.7664001-.89992 1.3752371-2.0428938.7734371-2.9648438-.6122-.9377-.9474996-1.5071562-.5625-3.0351562zm3 0c-1.0982 1.38422-1.42735 2.0661956-1.03125 2.9472656.3591.79867 1.286913 1.2057044.820313 3.0527344.7664-.89992 1.375237-2.0428937.773437-2.9648438-.6122-.9376999-.9475-1.5071562-.5625-3.0351562zm3 0c-1.0982 1.38422-1.42735 2.0661956-1.03125 2.9472656.3591.79867 1.286913 1.2057044.820313 3.0527344.7664-.89992 1.375237-2.0428937.773437-2.9648438-.6122-.9376999-.9475-1.5071562-.5625-3.0351562zm-9.193359 7c-2.209139 0-4 1.790861-4 4s1.790861 4 4 4c .2424594-.000838.4843405-.02372.7226562-.06836.7393644 1.549451 2.2353801 2.06836 5.2773438 2.06836 6 0 6-2 6-10zm0 2h .00781c.011613 1.596219.052166 2.938455.1953125 3.986328-.067429.008003-.1352268.012566-.2031225.013672-1.1045695 0-2-.895431-2-2s .8954305-2 2-2z" fill="#d3dae3"/></svg>

<svg xmlns="http://www.w3.org/2000/svg" width="22" height="22" version="1.1">
 <defs>
  <style id="current-color-scheme" type="text/css">
   .ColorScheme-Text { color:#d3dae3; } .ColorScheme-Highlight { color:#5294e2; }
  </style>
 </defs>
 <path style="fill:currentColor" class="ColorScheme-Text" d="M 10.193359,2 C 9.0951594,3.38422 8.7660094,4.0661956 9.1621094,4.9472656 9.5212094,5.7459356 10.449022,6.15297 9.9824219,8 10.748822,7.10008 11.357659,5.9571062 10.755859,5.0351562 10.143659,4.0974562 9.8083594,3.528 10.193359,2 Z m 3,0 c -1.0982,1.38422 -1.42735,2.0661956 -1.03125,2.9472656 C 12.521209,5.7459356 13.449022,6.15297 12.982422,8 13.748822,7.10008 14.357659,5.9571063 13.755859,5.0351562 13.143659,4.0974563 12.808359,3.528 13.193359,2 Z m 3,0 c -1.0982,1.38422 -1.42735,2.0661956 -1.03125,2.9472656 C 15.521209,5.7459356 16.449022,6.15297 15.982422,8 16.748822,7.10008 17.357659,5.9571063 16.755859,5.0351562 16.143659,4.0974563 15.808359,3.528 16.193359,2 Z M 7,9 c -2.209139,0 -4,1.790861 -4,4 0,2.209139 1.790861,4 4,4 0.2424594,-8.38e-4 0.4843405,-0.02372 0.7226562,-0.06836 C 8.4620206,18.481091 9.9580363,19 13,19 19,19 19,17 19,9 L 7,9 Z m 0,2 0.00781,0 c 0.011613,1.596219 0.052166,2.938455 0.1953125,3.986328 C 7.1356935,14.994331 7.0678957,14.998894 7,15 5.8954305,15 5,14.104569 5,13 5,11.895431 5.8954305,11 7,11 Z"/>
</svg>
